remix/Others/scales-3-line.svg

<svg viewBox="0 0 24 24" fill="currentColor" xmlns="http://www.w3.org/2000/svg"><path d="M12.9985 2L12.9979 3.278L17.9985 4.94591L21.631 3.73509L22.2634 5.63246L19.2319 6.643L22.3272 15.1549C21.2353 16.2921 19.6996 17 17.9985 17C16.2975 17 14.7618 16.2921 13.6699 15.1549L16.7639 6.643L12.9979 5.387V19H16.9985V21H6.99854V19H10.9979V5.387L7.23192 6.643L10.3272 15.1549C9.23528 16.2921 7.69957 17 5.99854 17C4.2975 17 2.76179 16.2921 1.66992 15.1549L4.76392 6.643L1.73363 5.63246L2.36608 3.73509L5.99854 4.94591L10.9979 3.278L10.9985 2H12.9985ZM17.9985 9.10267L16.04 14.4892C16.628 14.8201 17.2979 15 17.9985 15C18.6992 15 19.3691 14.8201 19.957 14.4892L17.9985 9.10267ZM5.99854 9.10267L4.04004 14.4892C4.62795 14.8201 5.29792 15 5.99854 15C6.69916 15 7.36912 14.8201 7.95703 14.4892L5.99854 9.10267Z"/></svg>

<svg viewBox="0 0 24 24" xmlns="http://www.w3.org/2000/svg"><path fill="none" d="M0 0h24v24H0Z"/><path d="M13 2v1.278l5 1.66 3.63-1.21 .63 1.896 -3.04 1.01 3.09 8.512c-1.1 1.13-2.63 1.84-4.33 1.84 -1.71 0-3.237-.71-4.33-1.85l3.09-8.512 -3.77-1.26v13.613h4v2h-10v-2h4V5.36L7.2 6.61l3.096 8.512c-1.1 1.13-2.628 1.84-4.328 1.84 -1.71 0-3.237-.71-4.329-1.85L4.72 6.6 1.69 5.59l.633-1.9L5.96 4.9l5-1.67V1.95h2Zm5 7.103l-1.96 5.38c.58.33 1.25.51 1.95.51s1.37-.18 1.95-.51l-1.96-5.388Zm-12 0l-1.96 5.38c.58.33 1.25.51 1.95.51s1.37-.18 1.95-.51L5.98 9.095Z"/></svg>
